src/xmb/monochrome/Libretro - Pad.svg

<?xml version="1.0" encoding="UTF-8" standalone="no"?>
<!-- Created with Inkscape (http://www.inkscape.org/) -->

<svg
   xmlns:dc="http://purl.org/dc/elements/1.1/"
   xmlns:cc="http://creativecommons.org/ns#"
   xmlns:rdf="http://www.w3.org/1999/02/22-rdf-syntax-ns#"
   xmlns:svg="http://www.w3.org/2000/svg"
   xmlns="http://www.w3.org/2000/svg"
   xmlns:sodipodi="http://sodipodi.sourceforge.net/DTD/sodipodi-0.dtd"
   xmlns:inkscape="http://www.inkscape.org/namespaces/inkscape"
   id="svg4152"
   version="1.1"
   inkscape:version="0.92.3 (2405546, 2018-03-11)"
   width="64"
   height="64"
   xml:space="preserve"
   sodipodi:docname="Libretro - Pad.svg"
   inkscape:export-filename="/Users/margetts/Desktop/Icon Workshop/Monochrome Plus June/png/Libretro - Pad.png"
   inkscape:export-xdpi="360"
   inkscape:export-ydpi="360"><metadata
     id="metadata4158"><rdf:RDF><cc:Work
         rdf:about=""><dc:format>image/svg+xml</dc:format><dc:type
           rdf:resource="http://purl.org/dc/dcmitype/StillImage" /><dc:title></dc:title></cc:Work></rdf:RDF></metadata><defs
     id="defs4156"><clipPath
       clipPathUnits="userSpaceOnUse"
       id="clipPath4166"><path
         d="M 0,64 64,64 64,0 0,0 0,64 z"
         id="path4168"
         inkscape:connector-curvature="0" /></clipPath></defs><sodipodi:namedview
     pagecolor="#808080"
     bordercolor="#666666"
     borderopacity="1"
     objecttolerance="10"
     gridtolerance="10"
     guidetolerance="10"
     inkscape:pageopacity="0"
     inkscape:pageshadow="2"
     inkscape:window-width="1024"
     inkscape:window-height="705"
     id="namedview4154"
     showgrid="true"
     inkscape:zoom="7.5999999"
     inkscape:cx="29.63905"
     inkscape:cy="33.391212"
     inkscape:window-x="-8"
     inkscape:window-y="-8"
     inkscape:window-maximized="1"
     inkscape:current-layer="g4160"><inkscape:grid
       type="xygrid"
       id="grid836" /></sodipodi:namedview><g
     id="g4160"
     inkscape:groupmode="layer"
     inkscape:label="Libretro - Pad"
     transform="matrix(1.25,0,0,-1.25,0,64)"><path
       style="fill:#ffffff;fill-opacity:1;fill-rule:nonzero;stroke:none;stroke-width:0.99998987"
       d="M 22.371094 23 C 16.643686 23 12 27.643802 12 33.371094 L 12 36.333984 C 12 40.016132 14.983794 43 18.666016 43 L 28.580078 43 C 28.860819 43 29.117002 42.84095 29.242188 42.589844 L 29.574219 41.927734 C 29.699404 41.676629 29.955588 41.517578 30.236328 41.517578 L 33.763672 41.517578 C 34.044413 41.517578 34.300596 41.676629 34.425781 41.927734 L 34.757812 42.589844 C 34.882998 42.84095 35.139182 43 35.419922 43 L 45.333984 43 C 49.016206 43 52 40.016132 52 36.333984 L 52 33.371094 C 52 27.643802 47.356312 23 41.628906 23 L 22.371094 23 z M 44.501953 26.5 C 45.606321 26.5 46.5 27.395027 46.5 28.5 C 46.5 29.604974 45.606321 30.5 44.501953 30.5 C 43.397586 30.5 42.5 29.604974 42.5 28.5 C 42.5 27.395027 43.397586 26.5 44.501953 26.5 z M 18.375 27 L 20.625 27 C 20.832005 27 21 27.167999 21 27.375 L 21 30 L 23.626953 30 C 23.833959 30 24.000001 30.167999 24 30.375 L 24 32.626953 C 24 32.833954 23.833959 33 23.626953 33 L 21 33 L 21 35.626953 C 21 35.833956 20.832005 36 20.625 36 L 18.375 36 C 18.167995 36 18 35.833956 18 35.626953 L 18 33 L 15.375 33 C 15.167995 33 15 32.833954 15 32.626953 L 15 30.375 C 15 30.167999 15.167995 30 15.375 30 L 18 30 L 18 27.375 C 18 27.167999 18.167995 27 18.375 27 z M 41 30 C 42.104973 30 43 30.893679 43 31.998047 C 43 33.102414 42.104972 34 41 34 C 39.895026 34 39 33.102414 39 31.998047 C 39 30.893679 39.895026 30 41 30 z M 48 30 C 49.104972 30 50 30.893679 50 31.998047 C 50 33.102414 49.104972 34 48 34 C 46.895026 34 46 33.102414 46 31.998047 C 46 30.893679 46.895026 30 48 30 z M 28 32 L 29.998047 32 C 30.551062 32 31 32.450314 31 33.001953 C 31 33.554591 30.551062 34 29.998047 34 L 28 34 C 27.446988 34 27 33.554591 27 33.001953 C 27 32.450314 27.446988 32 28 32 z M 34 32 L 35.998047 32 C 36.551062 32 37 32.450314 37 33.001953 C 37 33.554591 36.551062 34 35.998047 34 L 34 34 C 33.446987 34 33 33.554591 33 33.001953 C 33 32.450314 33.446987 32 34 32 z M 44.501953 33.5 C 45.606321 33.5 46.5 34.395026 46.5 35.5 C 46.5 36.604973 45.606321 37.5 44.501953 37.5 C 43.397586 37.5 42.5 36.604973 42.5 35.5 C 42.5 34.395026 43.397586 33.5 44.501953 33.5 z M 27 36 C 28.656955 36.0001 30.000102 37.343246 30 39 C 30.000103 40.656752 28.656955 41.999899 27 42 C 25.343045 41.999899 23.999899 40.656752 24 39 C 23.999899 37.343246 25.343045 36.0001 27 36 z M 37 36 C 38.656955 36.0001 40.000102 37.343246 40 39 C 40.000102 40.656752 38.656955 41.999899 37 42 C 35.343045 41.999899 33.999899 40.656752 34 39 C 33.999899 37.343246 35.343045 36.0001 37 36 z "
       transform="matrix(0.8,0,0,-0.8,0,51.2)"
       id="path4180" /><path
       inkscape:connector-curvature="0"
       id="path4184"
       style="fill:#ffffff;fill-opacity:1;fill-rule:nonzero;stroke:none;stroke-width:0.79999202"
       d="m 16.8,26 c 0,-0.6632 -0.536801,-1.2 -1.200002,-1.2 C 14.9368,24.8 14.4,25.3368 14.4,26 c 0,0.6632 0.5368,1.2 1.199998,1.2 C 16.263199,27.2 16.8,26.6632 16.8,26" /><path
       inkscape:connector-curvature="0"
       id="path4188"
       style="fill:#ffffff;fill-opacity:1;fill-rule:nonzero;stroke:none;stroke-width:0.79999191"
       d="m 17.6,33.6 v 0.29155 c 0,0.168293 -0.140444,0.309327 -0.308741,0.301031 C 15.084444,34.07762 13.070222,33.285932 11.492148,31.9467 11.229037,31.723297 11.081482,31.39323 11.081482,31.047755 V 30.73428 C 12.70637,32.491282 15.023407,33.6 17.6,33.6" /><path
       inkscape:connector-curvature="0"
       id="path4192"
       style="fill:#ffffff;fill-opacity:1;fill-rule:nonzero;stroke:none;stroke-width:0.79999191"
       d="m 21.6,33.6 h -3.2 v 0.29629 c 0,0.163553 0.119467,0.296291 0.266667,0.296291 h 2.666667 c 0.147199,0 0.266666,-0.132738 0.266666,-0.296291 z" /><path
       style="opacity:0.98999999;vector-effect:none;fill:#ffffff;fill-opacity:1;stroke:none;stroke-width:3.20000005;stroke-linecap:butt;stroke-linejoin:miter;stroke-miterlimit:4;stroke-dasharray:none;stroke-dashoffset:0;stroke-opacity:1"
       d="m 29.6,21.599999 c -0.88356,0 -1.6,-0.716773 -1.6,-1.600703 0,-0.883932 0.71644,-1.599297 1.6,-1.599297 0.883562,0 1.6,0.715366 1.6,1.599297 0,0.883931 -0.716438,1.600703 -1.6,1.600703 z"
       id="path889"
       inkscape:connector-curvature="0" /><path
       inkscape:connector-curvature="0"
       id="path916"
       d="m 21.6,21.599999 c -0.88356,0 -1.6,-0.716773 -1.6,-1.600703 0,-0.883932 0.71644,-1.599297 1.6,-1.599297 0.883562,0 1.6,0.715366 1.6,1.599297 0,0.883931 -0.716438,1.600703 -1.6,1.600703 z"
       style="opacity:0.98999999;vector-effect:none;fill:#ffffff;fill-opacity:1;stroke:none;stroke-width:3.20000005;stroke-linecap:butt;stroke-linejoin:miter;stroke-miterlimit:4;stroke-dasharray:none;stroke-dashoffset:0;stroke-opacity:1" /><path
       d="m 33.6,33.6 v 0.29155 c 0,0.168293 0.140444,0.309327 0.308741,0.301031 2.206815,-0.114961 4.221037,-0.906649 5.799111,-2.245881 0.263111,-0.223403 0.410666,-0.55347 0.410666,-0.898945 V 30.73428 C 38.49363,32.491282 36.176593,33.6 33.6,33.6"
       style="fill:#ffffff;fill-opacity:1;fill-rule:nonzero;stroke:none;stroke-width:0.79999191"
       id="path926"
       inkscape:connector-curvature="0" /><path
       d="m 29.6,33.6 h 3.2 v 0.29629 c 0,0.163553 -0.119467,0.296291 -0.266667,0.296291 H 29.866666 C 29.719467,34.192581 29.6,34.059843 29.6,33.89629 Z"
       style="fill:#ffffff;fill-opacity:1;fill-rule:nonzero;stroke:none;stroke-width:0.79999191"
       id="path928"
       inkscape:connector-curvature="0" /><path
       sodipodi:nodetypes="csssssccssccssssc"
       d="M 82.104232,31.199676 H 66.696824 c -4.581926,0 -8.296296,-3.714295 -8.296296,-8.296128 v -2.370322 c 0,-2.945718 2.387556,-5.333226 5.333333,-5.333226 h 7.930074 c 0.224593,0 0.42963,0.126813 0.529778,0.327698 l 0.265482,0.529767 c 0.100148,0.200884 0.305185,0.327697 0.529777,0.327697 h 2.823111 c 0.224593,0 0.42963,-0.126813 0.529778,-0.327697 l 0.265482,-0.529767 C 76.707491,15.326813 76.912528,15.2 77.13712,15.2 h 7.930075 c 2.945777,0 5.333333,2.387508 5.333333,5.333226 v 2.370322 c 0,4.581833 -3.714371,8.296128 -8.296296,8.296128"
       style="fill:#ffffff;fill-opacity:1;fill-rule:nonzero;stroke:none;stroke-width:0.79999191"
       id="path930"
       inkscape:connector-curvature="0" /><path
       style="opacity:0.98999999;vector-effect:none;fill:#ff0000;fill-opacity:1;stroke:none;stroke-width:3.19999981;stroke-linecap:butt;stroke-linejoin:miter;stroke-miterlimit:4;stroke-dasharray:none;stroke-dashoffset:0;stroke-opacity:1"
       d="M 76,24 C 75.55759,24 75.200528,23.640257 75.200528,23.198946 75.200528,22.756836 75.55759,22.4 76,22.4 h 1.598946 c 0.442412,0 0.801582,0.356836 0.801582,0.798946 0,0.441311 -0.35917,0.801054 -0.801582,0.801054 z"
       id="path932"
       inkscape:connector-curvature="0" /><path
       inkscape:connector-curvature="0"
       id="path934"
       d="m 87.200528,22.4 c 0.883978,0 1.6,0.717349 1.6,1.600843 0,0.883494 -0.716022,1.599157 -1.6,1.599157 -0.883979,0 -1.6,-0.715663 -1.6,-1.599157 0,-0.883494 0.716021,-1.600843 1.6,-1.600843 z"
       style="opacity:0.98999999;vector-effect:none;fill:#ff0000;fill-opacity:1;stroke:none;stroke-width:3.20000005;stroke-linecap:butt;stroke-linejoin:miter;stroke-miterlimit:4;stroke-dasharray:none;stroke-dashoffset:0;stroke-opacity:1" /><path
       style="opacity:0.98999999;vector-effect:none;fill:#ff0000;fill-opacity:1;stroke:none;stroke-width:3.20000005;stroke-linecap:butt;stroke-linejoin:miter;stroke-miterlimit:4;stroke-dasharray:none;stroke-dashoffset:0;stroke-opacity:1"
       d="m 81.600528,22.4 c 0.883978,0 1.6,0.717349 1.6,1.600843 0,0.883494 -0.716022,1.599157 -1.6,1.599157 -0.883979,0 -1.6,-0.715663 -1.6,-1.599157 0,-0.883494 0.716021,-1.600843 1.6,-1.600843 z"
       id="path936"
       inkscape:connector-curvature="0" /><path
       style="opacity:0.98999999;vector-effect:none;fill:#ff0000;fill-opacity:1;stroke:none;stroke-width:3.20000005;stroke-linecap:butt;stroke-linejoin:miter;stroke-miterlimit:4;stroke-dasharray:none;stroke-dashoffset:0;stroke-opacity:1"
       d="m 82.800527,21.2 c 0,-0.883978 0.717349,-1.6 1.600843,-1.6 0.883494,0 1.599157,0.716022 1.599157,1.6 0,0.883979 -0.715663,1.6 -1.599157,1.6 -0.883494,0 -1.600843,-0.716021 -1.600843,-1.6 z"
       id="path938"
       inkscape:connector-curvature="0" /><path
       inkscape:connector-curvature="0"
       id="path940"
       d="m 82.800527,26.800001 c 0,-0.883979 0.717349,-1.600001 1.600843,-1.600001 0.883494,0 1.599157,0.716022 1.599157,1.600001 0,0.883978 -0.715663,1.599999 -1.599157,1.599999 -0.883494,0 -1.600843,-0.716021 -1.600843,-1.599999 z"
       style="opacity:0.98999999;vector-effect:none;fill:#ff0000;fill-opacity:1;stroke:none;stroke-width:3.20000005;stroke-linecap:butt;stroke-linejoin:miter;stroke-miterlimit:4;stroke-dasharray:none;stroke-dashoffset:0;stroke-opacity:1" /><path
       inkscape:connector-curvature="0"
       id="path942"
       d="M 71.2,24 C 70.75759,24 70.400528,23.640257 70.400528,23.198946 70.400528,22.756836 70.75759,22.4 71.2,22.4 h 1.598946 c 0.442412,0 0.801582,0.356836 0.801582,0.798946 0,0.441311 -0.35917,0.801054 -0.801582,0.801054 z"
       style="opacity:0.98999999;vector-effect:none;fill:#ff0000;fill-opacity:1;stroke:none;stroke-width:3.19999981;stroke-linecap:butt;stroke-linejoin:miter;stroke-miterlimit:4;stroke-dasharray:none;stroke-dashoffset:0;stroke-opacity:1" /><path
       inkscape:connector-curvature="0"
       id="path944"
       d="m 63.501121,27.999999 c -0.165604,0 -0.300593,-0.134993 -0.300593,-0.300594 V 25.599998 H 61.10112 c -0.165604,0 -0.300592,-0.134991 -0.300592,-0.300592 V 23.49901 c 0,-0.165601 0.134988,-0.299011 0.300592,-0.299011 h 2.099408 v -2.100988 c 0,-0.165602 0.134989,-0.299012 0.300593,-0.299012 h 1.798814 c 0.165604,0 0.300593,0.13341 0.300593,0.299012 v 2.100988 h 2.100989 c 0.165605,0 0.299011,0.13341 0.299011,0.299011 v 1.800396 c 10e-7,0.165601 -0.133406,0.300592 -0.299011,0.300592 h -2.100989 v 2.099407 c 0,0.165601 -0.134989,0.300594 -0.300593,0.300594 z"
       style="opacity:0.98999999;vector-effect:none;fill:#800000;fill-opacity:1;stroke:none;stroke-width:3.20000005;stroke-linecap:butt;stroke-linejoin:miter;stroke-miterlimit:4;stroke-dasharray:none;stroke-dashoffset:0;stroke-opacity:1" /><path
       d="m 65.600528,24.4 c 0,-0.6632 -0.536801,-1.2 -1.200002,-1.2 -0.663198,0 -1.199998,0.5368 -1.199998,1.2 0,0.6632 0.5368,1.2 1.199998,1.2 0.663201,0 1.200002,-0.5368 1.200002,-1.2"
       style="fill:#ff0000;fill-opacity:1;fill-rule:nonzero;stroke:none;stroke-width:0.79999202"
       id="path946"
       inkscape:connector-curvature="0" /><path
       d="m 66.400528,32 v 0.29155 c 0,0.168293 -0.140444,0.309327 -0.308741,0.301031 C 63.884972,32.47762 61.87075,31.685932 60.292676,30.3467 60.029565,30.123297 59.88201,29.79323 59.88201,29.447755 V 29.13428 C 61.506898,30.891282 63.823935,32 66.400528,32"
       style="fill:#ff0000;fill-opacity:1;fill-rule:nonzero;stroke:none;stroke-width:0.79999191"
       id="path948"
       inkscape:connector-curvature="0" /><path
       d="m 70.400528,32 h -3.2 v 0.29629 c 0,0.163553 0.119467,0.296291 0.266667,0.296291 h 2.666667 c 0.147199,0 0.266666,-0.132738 0.266666,-0.296291 z"
       style="fill:#ff0000;fill-opacity:1;fill-rule:nonzero;stroke:none;stroke-width:0.79999191"
       id="path950"
       inkscape:connector-curvature="0" /><path
       sodipodi:nodetypes="ccccc"
       inkscape:connector-curvature="0"
       id="path952"
       d="m 78.400528,20.799999 c -1.325564,-8e-5 -2.400081,-1.074597 -2.4,-2.4 -8.1e-5,-1.325402 1.074436,-2.399919 2.4,-2.4 1.325564,8.1e-5 2.400082,1.074598 2.4,2.4 8.2e-5,1.325403 -1.074436,2.39992 -2.4,2.4 z"
       style="opacity:0.98999999;vector-effect:none;fill:#800000;fill-opacity:1;stroke:none;stroke-width:3.20000005;stroke-linecap:butt;stroke-linejoin:miter;stroke-miterlimit:4;stroke-dasharray:none;stroke-dashoffset:0;stroke-opacity:1" /><path
       inkscape:connector-curvature="0"
       id="path954"
       d="m 78.400528,19.999999 c -0.88356,0 -1.6,-0.716773 -1.6,-1.600703 0,-0.883932 0.71644,-1.599297 1.6,-1.599297 0.883562,0 1.6,0.715366 1.6,1.599297 0,0.883931 -0.716438,1.600703 -1.6,1.600703 z"
       style="opacity:0.98999999;vector-effect:none;fill:#ff0000;fill-opacity:1;stroke:none;stroke-width:3.20000005;stroke-linecap:butt;stroke-linejoin:miter;stroke-miterlimit:4;stroke-dasharray:none;stroke-dashoffset:0;stroke-opacity:1" /><path
       style="opacity:0.98999999;vector-effect:none;fill:#800000;fill-opacity:1;stroke:none;stroke-width:3.20000005;stroke-linecap:butt;stroke-linejoin:miter;stroke-miterlimit:4;stroke-dasharray:none;stroke-dashoffset:0;stroke-opacity:1"
       d="m 70.400528,20.799999 c -1.325564,-8e-5 -2.400081,-1.074597 -2.4,-2.4 -8.1e-5,-1.325402 1.074436,-2.399919 2.4,-2.4 1.325564,8.1e-5 2.400082,1.074598 2.4,2.4 8.2e-5,1.325403 -1.074436,2.39992 -2.4,2.4 z"
       id="path956"
       inkscape:connector-curvature="0"
       sodipodi:nodetypes="ccccc" /><path
       style="opacity:0.98999999;vector-effect:none;fill:#ff0000;fill-opacity:1;stroke:none;stroke-width:3.20000005;stroke-linecap:butt;stroke-linejoin:miter;stroke-miterlimit:4;stroke-dasharray:none;stroke-dashoffset:0;stroke-opacity:1"
       d="m 70.400528,19.999999 c -0.88356,0 -1.6,-0.716773 -1.6,-1.600703 0,-0.883932 0.71644,-1.599297 1.6,-1.599297 0.883562,0 1.6,0.715366 1.6,1.599297 0,0.883931 -0.716438,1.600703 -1.6,1.600703 z"
       id="path958"
       inkscape:connector-curvature="0" /><path
       inkscape:connector-curvature="0"
       id="path960"
       style="fill:#ff0000;fill-opacity:1;fill-rule:nonzero;stroke:none;stroke-width:0.79999191"
       d="m 82.400528,32 v 0.29155 c 0,0.168293 0.140444,0.309327 0.308741,0.301031 2.206815,-0.114961 4.221037,-0.906649 5.799111,-2.245881 0.263111,-0.223403 0.410666,-0.55347 0.410666,-0.898945 V 29.13428 C 87.294158,30.891282 84.977121,32 82.400528,32" /><path
       inkscape:connector-curvature="0"
       id="path962"
       style="fill:#ff0000;fill-opacity:1;fill-rule:nonzero;stroke:none;stroke-width:0.79999191"
       d="m 78.400528,32 h 3.2 v 0.29629 c 0,0.163553 -0.119467,0.296291 -0.266667,0.296291 h -2.666667 c -0.147199,0 -0.266666,-0.132738 -0.266666,-0.296291 z" /></g></svg>

<svg xmlns="http://www.w3.org/2000/svg" xml:space="preserve" width="64" height="64"><path d="M22.371 23C16.644 23 12 27.644 12 33.371v2.963A6.665 6.665 0 0 0 18.666 43h9.914a.74.74 0 0 0 .662-.41l.332-.662a.74.74 0 0 1 .662-.41h3.528a.74.74 0 0 1 .662.41l.332.662a.74.74 0 0 0 .662.41h9.914A6.665 6.665 0 0 0 52 36.334v-2.963C52 27.644 47.356 23 41.629 23zm22.131 3.5c1.104 0 1.998.895 1.998 2s-.894 2-1.998 2a2 2 0 0 1-2.002-2c0-1.105.898-2 2.002-2m-26.127.5h2.25c.207 0 .375.168.375.375V30h2.627c.207 0 .373.168.373.375v2.252a.37.37 0 0 1-.373.373H21v2.627a.373.373 0 0 1-.375.373h-2.25a.373.373 0 0 1-.375-.373V33h-2.625a.373.373 0 0 1-.375-.373v-2.252c0-.207.168-.375.375-.375H18v-2.625c0-.207.168-.375.375-.375M41 30c1.105 0 2 .894 2 1.998A2 2 0 0 1 41 34c-1.105 0-2-.898-2-2.002S39.895 30 41 30m7 0c1.105 0 2 .894 2 1.998A2 2 0 0 1 48 34c-1.105 0-2-.898-2-2.002S46.895 30 48 30m-20 2h1.998a1 1 0 1 1 0 2H28a1 1 0 0 1 0-2m6 0h1.998a1 1 0 1 1 0 2H34a1 1 0 0 1 0-2m10.502 1.5c1.104 0 1.998.895 1.998 2s-.894 2-1.998 2a2 2 0 0 1-2.002-2c0-1.105.898-2 2.002-2M27 36a3 3 0 1 1 0 6 3 3 0 0 1 0-6m10 0a3 3 0 1 1 0 6 3 3 0 0 1 0-6" style="fill:#fff;fill-opacity:1;fill-rule:nonzero;stroke:none;stroke-width:.99998987"/><path d="M16.8 26a1.2 1.2 0 1 0-2.399-.001A1.2 1.2 0 0 0 16.8 26" style="fill:#fff;fill-opacity:1;fill-rule:nonzero;stroke:none;stroke-width:.79999202" transform="matrix(1.25 0 0 -1.25 0 64)"/><path d="M17.6 33.6v.292a.3.3 0 0 1-.309.3c-2.207-.114-4.22-.906-5.799-2.245a1.18 1.18 0 0 1-.41-.9v-.313A8.86 8.86 0 0 0 17.6 33.6m4 0h-3.2v.296c0 .164.12.297.267.297h2.666c.148 0 .267-.133.267-.297z" style="fill:#fff;fill-opacity:1;fill-rule:nonzero;stroke:none;stroke-width:.79999191" transform="matrix(1.25 0 0 -1.25 0 64)"/><path d="M29.6 21.6a1.6 1.6 0 1 1 .001-3.201A1.6 1.6 0 0 1 29.6 21.6m-8 0a1.6 1.6 0 1 1 .001-3.201A1.6 1.6 0 0 1 21.6 21.6" style="opacity:.98999999;vector-effect:none;fill:#fff;fill-opacity:1;stroke:none;stroke-width:3.20000005;stroke-linecap:butt;stroke-linejoin:miter;stroke-miterlimit:4;stroke-dasharray:none;stroke-dashoffset:0;stroke-opacity:1" transform="matrix(1.25 0 0 -1.25 0 64)"/><path d="M33.6 33.6v.292a.3.3 0 0 0 .309.3c2.207-.114 4.22-.906 5.799-2.245.263-.224.41-.554.41-.9v-.313A8.86 8.86 0 0 1 33.6 33.6m-4 0h3.2v.296c0 .164-.12.297-.267.297h-2.666c-.148 0-.267-.133-.267-.297Zm52.504-2.4H66.697a8.296 8.296 0 0 1-8.296-8.296v-2.37a5.333 5.333 0 0 1 5.333-5.334h7.93c.225 0 .43.127.53.328l.265.53c.1.2.305.327.53.327h2.823c.225 0 .43-.127.53-.328l.265-.53c.1-.2.306-.327.53-.327h7.93a5.333 5.333 0 0 1 5.334 5.333v2.37a8.296 8.296 0 0 1-8.297 8.297" style="fill:#fff;fill-opacity:1;fill-rule:nonzero;stroke:none;stroke-width:.79999191" transform="matrix(1.25 0 0 -1.25 0 64)"/><path d="M76 24a.8.8 0 0 1 0-1.6h1.599a.8.8 0 1 1 0 1.6z" style="opacity:.98999999;vector-effect:none;fill:red;fill-opacity:1;stroke:none;stroke-width:3.19999981;stroke-linecap:butt;stroke-linejoin:miter;stroke-miterlimit:4;stroke-dasharray:none;stroke-dashoffset:0;stroke-opacity:1" transform="matrix(1.25 0 0 -1.25 0 64)"/><path d="M87.2 22.4a1.6 1.6 0 1 1 0 3.201 1.6 1.6 0 0 1 0-3.201m-5.6 0a1.6 1.6 0 1 1 0 3.201 1.6 1.6 0 0 1 0-3.201m1.2-1.2a1.6 1.6 0 1 1 3.202.001A1.6 1.6 0 0 1 82.8 21.2m0 5.6a1.6 1.6 0 1 1 3.202.001A1.6 1.6 0 0 1 82.8 26.8" style="opacity:.98999999;vector-effect:none;fill:red;fill-opacity:1;stroke:none;stroke-width:3.20000005;stroke-linecap:butt;stroke-linejoin:miter;stroke-miterlimit:4;stroke-dasharray:none;stroke-dashoffset:0;stroke-opacity:1" transform="matrix(1.25 0 0 -1.25 0 64)"/><path d="M71.2 24a.8.8 0 0 1 0-1.6h1.599a.8.8 0 1 1 0 1.6z" style="opacity:.98999999;vector-effect:none;fill:red;fill-opacity:1;stroke:none;stroke-width:3.19999981;stroke-linecap:butt;stroke-linejoin:miter;stroke-miterlimit:4;stroke-dasharray:none;stroke-dashoffset:0;stroke-opacity:1" transform="matrix(1.25 0 0 -1.25 0 64)"/><path d="M63.501 28a.3.3 0 0 1-.3-.3v-2.1h-2.1a.3.3 0 0 1-.3-.3v-1.801a.3.3 0 0 1 .3-.299h2.1v-2.101a.3.3 0 0 1 .3-.299H65.3a.3.3 0 0 1 .3.299V23.2h2.102c.165 0 .299.133.299.299v1.8a.3.3 0 0 1-.3.301h-2.1v2.1c0 .165-.135.3-.301.3z" style="opacity:.98999999;vector-effect:none;fill:maroon;fill-opacity:1;stroke:none;stroke-width:3.20000005;stroke-linecap:butt;stroke-linejoin:miter;stroke-miterlimit:4;stroke-dasharray:none;stroke-dashoffset:0;stroke-opacity:1" transform="matrix(1.25 0 0 -1.25 0 64)"/><path d="M65.6 24.4a1.2 1.2 0 1 0-2.398-.001 1.2 1.2 0 0 0 2.399.001" style="fill:red;fill-opacity:1;fill-rule:nonzero;stroke:none;stroke-width:.79999202" transform="matrix(1.25 0 0 -1.25 0 64)"/><path d="M66.4 32v.292a.3.3 0 0 1-.308.3c-2.207-.114-4.221-.906-5.8-2.245a1.18 1.18 0 0 1-.41-.9v-.313A8.86 8.86 0 0 0 66.401 32m3.999 0h-3.2v.296c0 .164.12.297.267.297h2.667c.147 0 .267-.133.267-.297z" style="fill:red;fill-opacity:1;fill-rule:nonzero;stroke:none;stroke-width:.79999191" transform="matrix(1.25 0 0 -1.25 0 64)"/><path d="M78.4 20.8a2.4 2.4 0 1 1 0-4.8 2.4 2.4 0 0 1 0 4.8" style="opacity:.98999999;vector-effect:none;fill:maroon;fill-opacity:1;stroke:none;stroke-width:3.20000005;stroke-linecap:butt;stroke-linejoin:miter;stroke-miterlimit:4;stroke-dasharray:none;stroke-dashoffset:0;stroke-opacity:1" transform="matrix(1.25 0 0 -1.25 0 64)"/><path d="M78.4 20a1.6 1.6 0 1 1 .001-3.201 1.6 1.6 0 0 1 0 3.201" style="opacity:.98999999;vector-effect:none;fill:red;fill-opacity:1;stroke:none;stroke-width:3.20000005;stroke-linecap:butt;stroke-linejoin:miter;stroke-miterlimit:4;stroke-dasharray:none;stroke-dashoffset:0;stroke-opacity:1" transform="matrix(1.25 0 0 -1.25 0 64)"/><path d="M70.4 20.8a2.4 2.4 0 1 1 0-4.8 2.4 2.4 0 0 1 0 4.8" style="opacity:.98999999;vector-effect:none;fill:maroon;fill-opacity:1;stroke:none;stroke-width:3.20000005;stroke-linecap:butt;stroke-linejoin:miter;stroke-miterlimit:4;stroke-dasharray:none;stroke-dashoffset:0;stroke-opacity:1" transform="matrix(1.25 0 0 -1.25 0 64)"/><path d="M70.4 20a1.6 1.6 0 1 1 .001-3.201 1.6 1.6 0 0 1 0 3.201" style="opacity:.98999999;vector-effect:none;fill:red;fill-opacity:1;stroke:none;stroke-width:3.20000005;stroke-linecap:butt;stroke-linejoin:miter;stroke-miterlimit:4;stroke-dasharray:none;stroke-dashoffset:0;stroke-opacity:1" transform="matrix(1.25 0 0 -1.25 0 64)"/><path d="M82.4 32v.292a.3.3 0 0 0 .31.3c2.206-.114 4.22-.906 5.798-2.245a1.18 1.18 0 0 0 .411-.9v-.313A8.86 8.86 0 0 1 82.401 32M78.4 32h3.2v.296c0 .164-.119.297-.266.297h-2.667c-.147 0-.266-.133-.266-.297z" style="fill:red;fill-opacity:1;fill-rule:nonzero;stroke:none;stroke-width:.79999191" transform="matrix(1.25 0 0 -1.25 0 64)"/></svg>
